assets/images/img-guide-progress.svg

<svg xmlns="http://www.w3.org/2000/svg" width="96" height="96" fill="none" viewBox="0 0 96 96"><g clip-path="url(#clip0_854_54490)"><rect width="96" height="96" fill="#464C59"/><rect width="425" height="72" fill="#fff" transform="translate(15 12)"/><path fill="#0065D1" d="M25 34H51.625C52.7296 34 53.625 34.8954 53.625 36C53.625 37.1046 52.7296 38 51.625 38H25V34Z"/><rect width="20" height="20" x="65.625" y="26" fill="#fff" rx="10"/><rect width="20" height="20" x="65.625" y="26" stroke="#0065D1" stroke-width="8" rx="10"/><path fill="#0D1117" d="M61.2009 70V61.6H62.2089V69.196H66.1209V70H61.2009ZM69.6256 70.144C69.1296 70.144 68.7176 70.06 68.3896 69.892C68.0616 69.724 67.8176 69.5 67.6576 69.22C67.4976 68.94 67.4176 68.636 67.4176 68.308C67.4176 67.7 67.6496 67.232 68.1136 66.904C68.5776 66.576 69.2096 66.412 70.0096 66.412H71.6176V66.34C71.6176 65.82 71.4816 65.428 71.2096 65.164C70.9376 64.892 70.5736 64.756 70.1176 64.756C69.7256 64.756 69.3856 64.856 69.0976 65.056C68.8176 65.248 68.6416 65.532 68.5696 65.908H67.5376C67.5776 65.476 67.7216 65.112 67.9696 64.816C68.2256 64.52 68.5416 64.296 68.9176 64.144C69.2936 63.984 69.6936 63.904 70.1176 63.904C70.9496 63.904 71.5736 64.128 71.9896 64.576C72.4136 65.016 72.6256 65.604 72.6256 66.34V70H71.7256L71.6656 68.932C71.4976 69.268 71.2496 69.556 70.9216 69.796C70.6016 70.028 70.1696 70.144 69.6256 70.144ZM69.7816 69.292C70.1656 69.292 70.4936 69.192 70.7656 68.992C71.0456 68.792 71.2576 68.532 71.4016 68.212C71.5456 67.892 71.6176 67.556 71.6176 67.204V67.192H70.0936C69.5016 67.192 69.0816 67.296 68.8336 67.504C68.5936 67.704 68.4736 67.956 68.4736 68.26C68.4736 68.572 68.5856 68.824 68.8096 69.016C69.0416 69.2 69.3656 69.292 69.7816 69.292ZM77.5178 70.144C77.0298 70.144 76.5938 70.044 76.2098 69.844C75.8338 69.644 75.5458 69.364 75.3458 69.004L75.2498 70H74.3378V61.36H75.3458V65.032C75.5378 64.744 75.8098 64.484 76.1618 64.252C76.5218 64.02 76.9778 63.904 77.5298 63.904C78.1218 63.904 78.6378 64.04 79.0778 64.312C79.5178 64.584 79.8578 64.956 80.0978 65.428C80.3458 65.9 80.4698 66.436 80.4698 67.036C80.4698 67.636 80.3458 68.172 80.0978 68.644C79.8578 69.108 79.5138 69.476 79.0658 69.748C78.6258 70.012 78.1098 70.144 77.5178 70.144ZM77.4098 69.268C77.8098 69.268 78.1618 69.176 78.4658 68.992C78.7698 68.8 79.0098 68.536 79.1858 68.2C79.3618 67.864 79.4498 67.472 79.4498 67.024C79.4498 66.576 79.3618 66.184 79.1858 65.848C79.0098 65.512 78.7698 65.252 78.4658 65.068C78.1618 64.876 77.8098 64.78 77.4098 64.78C77.0098 64.78 76.6578 64.876 76.3538 65.068C76.0498 65.252 75.8098 65.512 75.6338 65.848C75.4578 66.184 75.3698 66.576 75.3698 67.024C75.3698 67.472 75.4578 67.864 75.6338 68.2C75.8098 68.536 76.0498 68.8 76.3538 68.992C76.6578 69.176 77.0098 69.268 77.4098 69.268ZM84.7489 70.144C84.1809 70.144 83.6769 70.016 83.2369 69.76C82.7969 69.496 82.4489 69.132 82.1929 68.668C81.9449 68.204 81.8209 67.656 81.8209 67.024C81.8209 66.4 81.9449 65.856 82.1929 65.392C82.4409 64.92 82.7849 64.556 83.2249 64.3C83.6729 64.036 84.1889 63.904 84.7729 63.904C85.3489 63.904 85.8449 64.036 86.2609 64.3C86.6849 64.556 87.0089 64.896 87.2329 65.32C87.4569 65.744 87.5689 66.2 87.5689 66.688C87.5689 66.776 87.5649 66.864 87.5569 66.952C87.5569 67.04 87.5569 67.14 87.5569 67.252H82.8169C82.8409 67.708 82.9449 68.088 83.1289 68.392C83.3209 68.688 83.5569 68.912 83.8369 69.064C84.1249 69.216 84.4289 69.292 84.7489 69.292C85.1649 69.292 85.5129 69.196 85.7929 69.004C86.0729 68.812 86.2769 68.552 86.4049 68.224H87.4009C87.2409 68.776 86.9329 69.236 86.4769 69.604C86.0289 69.964 85.4529 70.144 84.7489 70.144ZM84.7489 64.756C84.2689 64.756 83.8409 64.904 83.4649 65.2C83.0969 65.488 82.8849 65.912 82.8289 66.472H86.5729C86.5489 65.936 86.3649 65.516 86.0209 65.212C85.6769 64.908 85.2529 64.756 84.7489 64.756ZM89.1049 70V61.36H90.1129V70H89.1049Z"/></g><defs><clipPath id="clip0_854_54490"><rect width="96" height="96" fill="#fff"/></clipPath></defs></svg>

<svg xmlns="http://www.w3.org/2000/svg" width="96" height="96" fill="none" viewBox="0 0 96 96"><g clip-path="url(#a)"><path fill="#464C59" d="M0 0h96v96H0z"/><path fill="#fff" d="M15 12h425v72H15z"/><path fill="#0065D1" d="M25 34h26.625a2 2 0 1 1 0 4H25z"/><rect width="20" height="20" x="65.625" y="26" fill="#fff" rx="10"/><rect width="20" height="20" x="65.625" y="26" stroke="#0065D1" stroke-width="8" rx="10"/><path fill="#0D1117" d="M61.2 70v-8.4h1.009v7.596h3.912V70zm8.426.144q-.744 0-1.236-.252a1.71 1.71 0 0 1-.972-1.584q0-.912.696-1.404t1.896-.492h1.608v-.072q0-.78-.408-1.176-.408-.408-1.092-.408-.588 0-1.02.3-.42.288-.528.852h-1.032q.06-.648.432-1.092.384-.444.948-.672.564-.24 1.2-.24 1.248 0 1.872.672.636.66.636 1.764V70h-.9l-.06-1.068a2.4 2.4 0 0 1-.744.864q-.48.348-1.296.348m.156-.852q.576 0 .984-.3.42-.3.636-.78a2.4 2.4 0 0 0 .216-1.008v-.012h-1.524q-.888 0-1.26.312-.36.3-.36.756 0 .468.336.756.348.276.972.276m7.736.852q-.732 0-1.308-.3-.564-.3-.864-.84L75.25 70h-.912v-8.64h1.008v3.672q.288-.432.816-.78.54-.348 1.368-.348.888 0 1.548.408t1.02 1.116q.372.708.372 1.608t-.372 1.608q-.36.696-1.032 1.104-.66.396-1.548.396m-.108-.876q.6 0 1.056-.276.456-.288.72-.792t.264-1.176-.264-1.176a1.94 1.94 0 0 0-.72-.78 1.94 1.94 0 0 0-1.056-.288q-.6 0-1.056.288a1.94 1.94 0 0 0-.72.78q-.264.504-.264 1.176t.264 1.176.72.792q.456.276 1.056.276m7.339.876q-.852 0-1.512-.384a2.86 2.86 0 0 1-1.044-1.092q-.372-.696-.372-1.644 0-.936.372-1.632a2.67 2.67 0 0 1 1.032-1.092q.672-.396 1.548-.396.864 0 1.488.396.636.384.972 1.02a2.9 2.9 0 0 1 .324 1.632v.3h-4.74q.036.684.312 1.14.288.444.708.672.432.228.912.228.624 0 1.044-.288t.612-.78h.996a2.7 2.7 0 0 1-.924 1.38q-.672.54-1.728.54m0-5.388q-.72 0-1.284.444-.552.432-.636 1.272h3.744q-.036-.804-.552-1.26t-1.272-.456M89.105 70v-8.64h1.008V70z"/></g><defs><clipPath id="a"><path fill="#fff" d="M0 0h96v96H0z"/></clipPath></defs></svg>
